digital/Imbassy-X-Files/65ef0811cc67439994568a45/65ef0811cc67439994569010_Forbes_logo 1.svg

<svg fill="none" height="26" viewBox="0 0 98 26" width="98" xmlns="http://www.w3.org/2000/svg" xmlns:xlink="http://www.w3.org/1999/xlink"><clipPath id="a"><path d="m0 0h98v26h-98z"/></clipPath><g clip-path="url(#a)"><path d="m9.43418 2.4226h2.14682c1.3074-.1951 2.6426-.02357 3.8605.49596 1.5279.93119 2.6362 2.4303 3.0884 4.17755.3201.91563.3201.91563 1.0922.59134h.6026v-7.248712h-20.2063525v1.278062h.8285935c.360069-.00252.716129.0767 1.042009.23184.32588.15515.6133.38228.84116.66471.7721 1.25899.90392 2.67058.90392 10.01465 0 7.8019-.16949 9.7095-.90392 10.6823-.18131.2501-.41606.4555-.68671.6009-.27065.1453-.57021.2268-.87632.2385-1.1487325.2098-1.1487325.1907-1.1487325.7058-.0635258.1722-.0635258.3619 0 .5341h12.7490525c.0844-.1685.1283-.3548.1283-.5437s-.0439-.3751-.1283-.5436c-.3088-.0871-.6235-.1508-.9416-.1908-.3441-.0414-.6842-.1116-1.0169-.2098-.4764-.3523-.85382-.8245-1.09492-1.3698s-.33754-1.1449-.2798-1.7395c-.18832-1.259-.28247-3.5672-.28247-5.4747v-1.507h.75326c.93853-.0291 1.87643.0736 2.78713.3052.4362.2731.8076.6404 1.0876 1.0757.2799.4352.4615.9277.5319 1.4423l.1695.5913h1.1487v-8.45044h-1.0546l-.1695.82025c-.0713.52619-.2635 1.02819-.5611 1.46549s-.6924.7978-1.1525 1.0525c-.4457.1343-.9152.1669-1.3748.0954h-2.16559v-2.0602c0-2.13646.11299-6.6383.18831-7.34409zm88.13222 15.1269c-.8901-1.4512-2.2785-2.5179-3.8982-2.9948-1.2416-.3932-2.3894-1.0427-3.3708-1.9076-.2209-.2164-.3861-.4842-.4813-.7801-.0952-.296-.1175-.611-.0649-.9176.0015-.6015.2386-1.1778.6592-1.60237.285-.30243.6458-.52074 1.0438-.63161s.8183-.11014 1.216.00212c.8232.23766 1.5677.69646 2.1545 1.32776.5868.6314.994 1.4117 1.1787 2.2584.3013.8584.3389.8584.885.6295l.339-.1335v-4.74981l-.2448-.11445c-1.854-.65958-3.8206-.93211-5.7813-.80118-1.6885.04334-3.3003.7236-4.5196 1.90756-.553.52437-.9862 1.16488-1.2692 1.87658s-.409 1.4775-.3692 2.2437c.0106 1.1715.4697 2.2931 1.2806 3.1284.8961.8928 1.9957 1.548 3.2014 1.9076 2.9189 1.1636 3.7663 1.9075 3.7663 3.2619.0125.5712-.1671 1.1296-.5093 1.5837s-.8267.7769-1.3739.9152c-.6575.1463-1.3386.1463-1.9961 0-.8609-.3385-1.6296-.8803-2.2421-1.5803-.6126-.7001-1.0512-1.5382-1.2795-2.4446l-.2448-.6104h-.3389c-.162.0121-.321.0508-.4708.1144h-.1883v5.4175h.3201c1.2722.4287 2.5849.7227 3.917.8774h1.8832c.8166.0608 1.6376-.0166 2.4292-.2289 1.005-.1878 1.944-.6388 2.7237-1.3081.7796-.6693 1.3728-1.5336 1.7206-2.507.2247-.5437.34-1.1274.339-1.7168.0742-.8304-.0687-1.6659-.4143-2.4226zm-17.7394-9.86205c-1.1285-.47992-2.3444-.71272-3.5679-.68314-1.2236.02959-2.4271.3209-3.5317.85482-1.0382.51444-1.9585 1.24369-2.7013 2.14068s-1.2916 1.94179-1.6111 3.06699c-.4074 1.2274-.5799 2.5222-.5085 3.8151-.0135.7034.0433 1.4064.1695 2.0983.3041 1.7012 1.1149 3.2673 2.3234 4.4881 1.2085 1.2207 2.7569 2.0376 4.4372 2.3409 1.0941.1397 2.2013.1397 3.2955 0 1.1354-.2027 2.2221-.6235 3.2014-1.2399.81-.46 1.4956-1.1152 1.9962-1.9075-.0322-.1244-.0888-.2408-.1664-.3424-.0777-.1017-.1748-.1863-.2856-.249-.2149.0789-.4178.188-.6026.3243-.9367.6253-2.0427.9388-3.1637.8966-.7441.0509-1.49-.0664-2.1838-.3436-.6937-.2771-1.318-.7071-1.8274-1.2588-.3941-.3708-.7194-.8101-.9604-1.2971-.5852-1.1859-.9005-2.4896-.9228-3.8151v-.744h10.4328v-.3815c.023-.3811.023-.7634 0-1.1445-.0038-1.3469-.3594-2.6689-1.0309-3.8315-.6714-1.16255-1.6347-2.12439-2.7919-2.78775zm-5.2541 6.60015h-1.3182v-1.1255c.4331-2.8804 1.5065-4.59717 2.8248-4.59717 1.3182 0 1.8831 1.69777 2.1279 4.80707v.8774h-1.1299zm-27.0799-7.22964c-.6507-.02556-1.2976.11204-1.8832.40059-1.2728.62611-2.3008 1.66745-2.9189 2.95675l-.2448.4578v-3.81514h-.0942c-.2259 0-7.1937 1.41159-7.4196 1.50697-.226.09538-.1507.11445-.1507.45781s0 .40059.1507.41967l.7344.1526c.2057.00511.4075.05758.5903.15342.1827.09585.3414.23255.4643.39977.4708.6295.5649 1.7359.5649 6.4475.093 2.1212.0048 4.2465-.2636 6.3522-.0632.3175-.2222.6073-.4549.8294-.2328.2221-.5278.3656-.8445.4105l-.6403.1335h-.2448v.5342c-.0683.1779-.0683.3753 0 .5532h10.5269v-.5532c.0365-.1826.0365-.3707 0-.5532-.6338-.025-1.2641-.108-1.8832-.248-.3371-.1786-.6129-.4565-.791-.797-.1782-.3405-.2504-.7277-.207-1.1106-.1507-1.1064-.226-4.3492-.1884-6.829.0377-2.4798 0-2.6324.2072-2.8041.6301-.4894 1.4099-.7392 2.2033-.7058.7478.0165 1.4821.2057 2.1468.5532.2304.1296.4777.2259.7344.2861 0 0 1.8832-4.61628 1.8832-4.82612-.241-.28366-.548-.50198-.8932-.63521-.3453-.13323-.7179-.17716-1.0841-.12781zm-12.6926 8.01174c-.0657-1.3631-.452-2.6906-1.1268-3.8719-.6748-1.1812-1.6185-2.18202-2.7525-2.919-1.3476-.73642-2.8469-1.14247-4.3775-1.18553-1.5306-.04307-3.0498.27804-4.4357.93754-1.9595 1.04664-3.4389 2.82579-4.1241 4.95969-.7078 2.389-.7078 4.9359 0 7.325.371 1.3056 1.0645 2.494 2.0149 3.4527 1.1838 1.17 2.7102 1.9196 4.3502 2.1364 1.0527.0892 2.1109.0892 3.1637 0 .3874-.0597.771-.1425 1.1487-.248 1.5328-.4343 2.9119-1.3018 3.9757-2.5011 1.0639-1.1992 1.7685-2.6806 2.0316-4.2707.188-1.2624.2322-2.5425.1318-3.8151zm-7.8339 9.5378c-1.8832.5722-3.2956-1.2781-3.7664-5.1695-.1729-2.0373-.1729-4.0859 0-6.1233.3767-3.1283 1.3371-4.71162 2.8248-4.71162.3001-.01884.6004.0354.8756.1582.2752.12279.5174.31056.7062.5476 1.2618 1.27802 1.8832 3.81512 1.8832 7.63022.1567 2.1591-.1783 4.3259-.9792 6.3331-.3537.5854-.9009 1.0247-1.5442 1.2399zm33.897-17.16803c-.5314-.06926-1.0694-.06926-1.6007 0-1.02-.00088-2.0283.22031-2.9566.64857l-.5838.24798v-4.1394c.102-1.39696.102-2.79965 0-4.19662-.226 0-7.4197 1.39252-7.5326 1.44974-.0556.14084-.0556.29791 0 .43874 0 .40059 0 .38151.8474.57227.2379.05405.4665.14408.6779.26706.3676.35015.6123.81231.6968 1.31621.2144 1.45169.2838 2.92159.2071 4.38738v16.7483l.5085.1145c.7533.1717 2.8812.5341 3.578.6104 1.3914.1121 2.7893.1121 4.1806 0 1.5444-.1598 3.0164-.7434 4.2575-1.6879 1.2411-.9446 2.2042-2.2143 2.7856-3.6723.3466-.9358.5867-1.9086.7156-2.8995.1121-1.3422.0678-2.6932-.1318-4.0249-.2021-1.4929-.8525-2.8866-1.8631-3.99223-1.0107-1.10562-2.3326-1.86959-3.7864-2.1883zm-4.9339 16.84373c0-.248-.1883-8.6031-.1507-11.9413v-2.61336l.5461-.13353c.3685-.05348.7426-.05348 1.1111 0 .4075-.04197.8174.05179 1.1676.26706.7032.49163 1.2872 1.13853 1.708 1.89183s.6674 1.5936.7213 2.4574c.1371 1.389.1371 2.7885 0 4.1775-.1128 2.0189-.8807 3.9435-2.1845 5.4747-.3701.3561-.8348.5948-1.3371.6868-.38.0669-.7686.0669-1.1487 0-.3578 0-.3578-.1145-.3578-.2671z" fill="#fff"/></g></svg>

<svg width="98" height="26" viewBox="0 0 98 26" fill="none" xmlns="http://www.w3.org/2000/svg">
<g clip-path="url(#clip0_1094_7561)">
<path d="M9.43418 2.4226H11.581C12.8884 2.2275 14.2236 2.39903 15.4415 2.91856C16.9694 3.84975 18.0777 5.34886 18.5299 7.09611C18.85 8.01174 18.85 8.01174 19.6221 7.68745H20.2247V0.438738H0.0183475V1.7168H0.846941C1.20701 1.71428 1.56307 1.7935 1.88895 1.94864C2.21483 2.10379 2.50225 2.33092 2.73011 2.61335C3.50221 3.87234 3.63403 5.28393 3.63403 12.628C3.63403 20.4299 3.46454 22.3375 2.73011 23.3103C2.5488 23.5604 2.31405 23.7658 2.0434 23.9112C1.77275 24.0565 1.47319 24.138 1.16708 24.1497C0.0183475 24.3595 0.0183475 24.3404 0.0183475 24.8555C-0.0451783 25.0277 -0.0451783 25.2174 0.0183475 25.3896H12.7674C12.8518 25.2211 12.8957 25.0348 12.8957 24.8459C12.8957 24.657 12.8518 24.4708 12.7674 24.3023C12.4586 24.2152 12.1439 24.1515 11.8258 24.1115C11.4817 24.0701 11.1416 23.9999 10.8089 23.9017C10.3325 23.5494 9.95508 23.0772 9.71398 22.5319C9.47288 21.9866 9.37644 21.387 9.43418 20.7924C9.24586 19.5334 9.15171 17.2252 9.15171 15.3177V13.8107H9.90497C10.8435 13.7816 11.7814 13.8843 12.6921 14.1159C13.1283 14.389 13.4997 14.7563 13.7797 15.1916C14.0596 15.6268 14.2412 16.1193 14.3116 16.6339L14.4811 17.2252H15.6298V8.77476H14.5752L14.4057 9.59501C14.3344 10.1212 14.1422 10.6232 13.8446 11.0605C13.547 11.4978 13.1522 11.8583 12.6921 12.113C12.2464 12.2473 11.7769 12.2799 11.3173 12.2084H9.15171V10.1482C9.15171 8.01174 9.2647 3.5099 9.34002 2.80411L9.43418 2.4226ZM97.5664 17.5495C96.6763 16.0983 95.2879 15.0316 93.6682 14.5547C92.4266 14.1615 91.2788 13.512 90.2974 12.6471C90.0765 12.4307 89.9113 12.1629 89.8161 11.867C89.7209 11.571 89.6986 11.256 89.7512 10.9494C89.7527 10.3479 89.9898 9.7716 90.4104 9.34703C90.6954 9.0446 91.0562 8.82629 91.4542 8.71542C91.8522 8.60455 92.2725 8.60528 92.6702 8.71754C93.4934 8.9552 94.2379 9.414 94.8247 10.0453C95.4115 10.6767 95.8187 11.457 96.0034 12.3037C96.3047 13.1621 96.3423 13.1621 96.8884 12.9332L97.2274 12.7997V8.04989L96.9826 7.93544C95.1286 7.27586 93.162 7.00333 91.2013 7.13426C89.5128 7.1776 87.901 7.85786 86.6817 9.04182C86.1287 9.56619 85.6955 10.2067 85.4125 10.9184C85.1295 11.6301 85.0035 12.3959 85.0433 13.1621C85.0539 14.3336 85.513 15.4552 86.3239 16.2905C87.22 17.1833 88.3196 17.8385 89.5253 18.1981C92.4442 19.3617 93.2916 20.1056 93.2916 21.46C93.3041 22.0312 93.1245 22.5896 92.7823 23.0437C92.4401 23.4978 91.9556 23.8206 91.4084 23.9589C90.7509 24.1052 90.0698 24.1052 89.4123 23.9589C88.5514 23.6204 87.7827 23.0786 87.1702 22.3786C86.5576 21.6785 86.119 20.8404 85.8907 19.934L85.6459 19.3236H85.307C85.145 19.3357 84.986 19.3744 84.8362 19.438H84.6479V24.8555H84.968C86.2402 25.2842 87.5529 25.5782 88.885 25.7329H90.7682C91.5848 25.7937 92.4058 25.7163 93.1974 25.504C94.2024 25.3162 95.1414 24.8652 95.9211 24.1959C96.7007 23.5266 97.2939 22.6623 97.6417 21.6889C97.8664 21.1452 97.9817 20.5615 97.9807 19.9721C98.0549 19.1417 97.912 18.3062 97.5664 17.5495ZM79.827 7.68745C78.6985 7.20753 77.4826 6.97473 76.2591 7.00431C75.0355 7.0339 73.832 7.32521 72.7274 7.85913C71.6892 8.37357 70.7689 9.10282 70.0261 9.99981C69.2833 10.8968 68.7345 11.9416 68.415 13.0668C68.0076 14.2942 67.8351 15.589 67.9065 16.8819C67.893 17.5853 67.9498 18.2883 68.076 18.9802C68.3801 20.6814 69.1909 22.2475 70.3994 23.4683C71.6079 24.689 73.1563 25.5059 74.8366 25.8092C75.9307 25.9489 77.0379 25.9489 78.1321 25.8092C79.2675 25.6065 80.3542 25.1857 81.3335 24.5693C82.1435 24.1093 82.8291 23.4541 83.3297 22.6618C83.2975 22.5374 83.2409 22.421 83.1633 22.3194C83.0856 22.2177 82.9885 22.1331 82.8777 22.0704C82.6628 22.1493 82.4599 22.2584 82.2751 22.3947C81.3384 23.02 80.2324 23.3335 79.1114 23.2913C78.3673 23.3422 77.6214 23.2249 76.9276 22.9477C76.2339 22.6706 75.6096 22.2406 75.1002 21.6889C74.7061 21.3181 74.3808 20.8788 74.1398 20.3918C73.5546 19.2059 73.2393 17.9022 73.217 16.5767V15.8327H83.6498V15.4512C83.6728 15.0701 83.6728 14.6878 83.6498 14.3067C83.646 12.9598 83.2904 11.6378 82.6189 10.4752C81.9475 9.31265 80.9842 8.35081 79.827 7.68745ZM74.5729 14.2876H73.2547V13.1621C73.6878 10.2817 74.7612 8.56493 76.0795 8.56493C77.3977 8.56493 77.9626 10.2627 78.2074 13.372V14.2494H77.0775L74.5729 14.2876ZM47.493 7.05796C46.8423 7.0324 46.1954 7.17 45.6098 7.45855C44.337 8.08466 43.309 9.126 42.6909 10.4153L42.4461 10.8731V7.05796H42.3519C42.126 7.05796 35.1582 8.46955 34.9323 8.56493C34.7063 8.66031 34.7816 8.67938 34.7816 9.02274C34.7816 9.3661 34.7816 9.42333 34.9323 9.44241L35.6667 9.59501C35.8724 9.60012 36.0742 9.65259 36.257 9.74843C36.4397 9.84428 36.5984 9.98098 36.7213 10.1482C37.1921 10.7777 37.2862 11.8841 37.2862 16.5957C37.3792 18.7169 37.291 20.8422 37.0226 22.9479C36.9594 23.2654 36.8004 23.5552 36.5677 23.7773C36.3349 23.9994 36.0399 24.1429 35.7232 24.1878L35.0829 24.3213H34.8381V24.8555C34.7698 25.0334 34.7698 25.2308 34.8381 25.4087H45.365V24.8555C45.4015 24.6729 45.4015 24.4848 45.365 24.3023C44.7312 24.2773 44.1009 24.1943 43.4818 24.0543C43.1447 23.8757 42.8689 23.5978 42.6908 23.2573C42.5126 22.9168 42.4404 22.5296 42.4838 22.1467C42.3331 21.0403 42.2578 17.7975 42.2954 15.3177C42.3331 12.8379 42.2954 12.6853 42.5026 12.5136C43.1327 12.0242 43.9125 11.7744 44.7059 11.8078C45.4537 11.8243 46.188 12.0135 46.8527 12.361C47.0831 12.4906 47.3304 12.5869 47.5871 12.6471C47.5871 12.6471 49.4703 8.03082 49.4703 7.82098C49.2293 7.53732 48.9223 7.319 48.5771 7.18577C48.2318 7.05254 47.8592 7.00861 47.493 7.05796ZM34.8004 15.0697C34.7347 13.7066 34.3484 12.3791 33.6736 11.1978C32.9988 10.0166 32.0551 9.01578 30.9211 8.2788C29.5735 7.54238 28.0742 7.13633 26.5436 7.09327C25.013 7.0502 23.4938 7.37131 22.1079 8.03081C20.1484 9.07745 18.669 10.8566 17.9838 12.9905C17.276 15.3795 17.276 17.9264 17.9838 20.3155C18.3548 21.6211 19.0483 22.8095 19.9987 23.7682C21.1825 24.9382 22.7089 25.6878 24.3489 25.9046C25.4016 25.9938 26.4598 25.9938 27.5126 25.9046C27.9 25.8449 28.2836 25.7621 28.6613 25.6566C30.1941 25.2223 31.5732 24.3548 32.637 23.1555C33.7009 21.9563 34.4055 20.4749 34.6686 18.8848C34.8566 17.6224 34.9008 16.3423 34.8004 15.0697ZM26.9665 24.6075C25.0833 25.1797 23.6709 23.3294 23.2001 19.438C23.0272 17.4007 23.0272 15.3521 23.2001 13.3147C23.5768 10.1864 24.5372 8.60308 26.0249 8.60308C26.325 8.58424 26.6253 8.63848 26.9005 8.76128C27.1757 8.88407 27.4179 9.07184 27.6067 9.30888C28.8685 10.5869 29.4899 13.124 29.4899 16.9391C29.6466 19.0982 29.3116 21.265 28.5107 23.2722C28.157 23.8576 27.6098 24.2969 26.9665 24.5121V24.6075ZM60.8635 7.43947C60.3321 7.37021 59.7941 7.37021 59.2628 7.43947C58.2428 7.43859 57.2345 7.65978 56.3062 8.08804L55.7224 8.33602V4.19662C55.8244 2.79966 55.8244 1.39697 55.7224 0C55.4964 0 48.3027 1.39252 48.1898 1.44974C48.1342 1.59058 48.1342 1.74765 48.1898 1.88848C48.1898 2.28907 48.1898 2.26999 49.0372 2.46075C49.2751 2.5148 49.5037 2.60483 49.7151 2.72781C50.0827 3.07796 50.3274 3.54012 50.4119 4.04402C50.6263 5.49571 50.6957 6.96561 50.619 8.4314V25.1797L51.1275 25.2942C51.8808 25.4659 54.0087 25.8283 54.7055 25.9046C56.0969 26.0167 57.4948 26.0167 58.8861 25.9046C60.4305 25.7448 61.9025 25.1612 63.1436 24.2167C64.3847 23.2721 65.3478 22.0024 65.9292 20.5444C66.2758 19.6086 66.5159 18.6358 66.6448 17.6449C66.7569 16.3027 66.7126 14.9517 66.513 13.62C66.3109 12.1271 65.6605 10.7334 64.6499 9.62777C63.6392 8.52215 62.3173 7.75818 60.8635 7.43947ZM55.9296 24.2832C55.9296 24.0352 55.7413 15.6801 55.7789 12.3419V9.72854L56.325 9.59501C56.6935 9.54153 57.0676 9.54153 57.4361 9.59501C57.8436 9.55304 58.2535 9.6468 58.6037 9.86207C59.3069 10.3537 59.8909 11.0006 60.3117 11.7539C60.7325 12.5072 60.9791 13.3475 61.033 14.2113C61.1701 15.6003 61.1701 16.9998 61.033 18.3888C60.9202 20.4077 60.1523 22.3323 58.8485 23.8635C58.4784 24.2196 58.0137 24.4583 57.5114 24.5503C57.1314 24.6172 56.7428 24.6172 56.3627 24.5503C56.0049 24.5503 56.0049 24.4358 56.0049 24.2832H55.9296Z" fill="white"/>
</g>
<defs>
<clipPath id="clip0_1094_7561">
<rect width="98" height="26" fill="white"/>
</clipPath>
</defs>
</svg>
